X: 1
T: Walking on The Moon
C: Addie Harper
%Q: 1/4=150
S: Dominique Renaudin <d140557@club-internet.FR> scots-l 2000-01-03
M: C|
L: 1/8
K: A
ef \
| "A"a2a2 feec | e2e2 "E7"cBBc | "A"A2A2 ceee | "F#m"feee "E7"cefg |
| "A"a2a2 feec | e2a2 "E7"cBBc | "A"A2A2 ceec |1 "E7"BccB "A"A2 :|2 "E7"BccB "A"A2 ||
|: z^B \
| "A"c2c2 BAAc | e2e2 feef | "F#m"a2a2 feec | "Bm"feec "E7"B2e2 |
| "A"c2c2 BAAc | e2e2 feef | "F#m"a2[a2A2] feec | "E7"BccB "A"A2 :|
